X: 3
T: ~
M: 9/8
L: 1/8
R: slip jig
K: G Major
|: A |\
B2 B c>AG FED | B2 B cAB c2 A |
B2 B c>AG FGA | B^AB c=AF G :|
|: B |\
ded c>AG FED | ded cAB c2 A | 
ded c>AG FGA | B2 B cAF G :|
